X:1
T:E. O. Excell
T:Rev, Henry Moser
T:A Song of Cheer
%%score { ( 1 2 ) | ( 3 4 ) }
L:1/8
M:6/8
K:Ab
V:1 treble 
V:2 treble 
V:3 bass 
V:4 bass 
V:1
{/x} E | E2 F F2 E | E2 F F2 E | c2 c d2 c | F3- F2 F | G2 G F2 E | G2 G F2 E | A2 A B2 B | %8
w: In|songs of praise and|glad re\- frain We|lift our hearts to\-|day, * And|hon\- or Him who|thro' the year Hath|been our guide al\-|
w: The|ten\- der mer\- cies|of our God, The|rich\- es of His|grace, * Have|sat\- is\- fied our|long\- ing souls, And|turned our hearts to|
w: Let|all u\- nite on|this glad day, And|sing with one ac\-|cord; * Let|in\- cense of thanks\-|giv\- ing rise Un\-|to our Sav\- ior,|
 c3- c2"^Chorus" e | e3- e2 e | e3- e2 e | e3- e2 e | e3- e2 E | F2 A d2 F | E2 A c2 c | %15
w: way. * *|||||||
w: praise. * God|bless our school,|Our homes so|dear; * *||||
w: Lord. * *|||||||
 e2 d c2 B | A3- A2 |] %17
w: ||
w: ||
w: ||
V:2
 C | C2 C C2 C | C2 C C2 C | E2 E F2 E | D2 E D2 D | D2 D D2 D | D2 D D2 E | E2 E E2 E | %8
w: ||||||||
 E3- E2 [Ge] | [Ge]2 [GB] [^F=A]2 [GB] | [Ac]2 [EA] [CE]2 [Ae] | [Ge]2 [GB] [^F=A]2 [GB] | %12
w: * * God|bless our loved ones,|bless our school, God|bless our homes so|
 [Ac-]3 [Ac]2 E | D2 F F2 D | C2 C E2 A | A2 G G2 E | E3- E2 |] %17
w: dear; * And|may this day bring|to us all A|store of hope and|cheer. *|
V:3
 A, | A,2 A, A,2 A, | A,2 A, A,2 A, | A,2 A, A,2 A, | A,2 =A, B,2 B, | B,2 B, A,2 G, | %6
 B,2 B, A,2 G, | A,2 A, G,2 G, | A,3- A,2 C | D2 D C2 E | E2 C A,2 C | D2 D C2 E | E3- E2 A, | %13
 A,2 A, A,2 A, | A,2 A, A,2 E | C2 F E2 D | C3- C2 |] %17
V:4
 A,, | A,,2 A,, A,,2 A,, | A,,2 A,, A,,2 A,, | A,,2 A,, A,,2 A,, | D,2 C, B,,2 B,, | %5
 E,2 E, E,2 E, | E,2 E, E,2 D, | C,2 C, E,2 E, | A,,3- A,,2 A, | E,2 E, E,2 E, | A,2 A, A,2 A, | %11
 E,2 E, E,2 E, | A,3- A,2 C, | D,2 D, D,2 D, | A,,2 A,, A,,2 A, | E,2 E, E,2 E, | A,3- A,2 |] %17

